icons/editor/list-checks.svg

<svg width="32" height="32" viewBox="0 0 32 32" fill="none" xmlns="http://www.w3.org/2000/svg">
<path fill-rule="evenodd" clip-rule="evenodd" d="M6.70718 10.2071L12.7072 4.20712L11.293 2.79291L6.00008 8.0858L3.20718 5.29291L1.79297 6.70712L5.29297 10.2071L6.00008 10.9142L6.70718 10.2071ZM30.0001 8.00001H16.0001V6.00001H30.0001V8.00001ZM16.0001 17H30.0001V15H16.0001V17ZM16.0001 26H30.0001V24H16.0001V26ZM6.70718 28.2071L12.7072 22.2071L11.293 20.7929L6.00008 26.0858L3.20718 23.2929L1.79297 24.7071L5.29297 28.2071L6.00008 28.9142L6.70718 28.2071ZM12.7072 13.2071L6.70718 19.2071L6.00008 19.9142L5.29297 19.2071L1.79297 15.7071L3.20718 14.2929L6.00008 17.0858L11.293 11.7929L12.7072 13.2071Z" fill="black"/>
</svg>

<svg width="32" height="32" viewBox="0 0 32 32" xmlns="http://www.w3.org/2000/svg">
    <path fill-rule="evenodd" d="M6.707 10.207l6-6-1.414-1.414L6 8.086 3.207 5.293 1.793 6.707l3.5 3.5.707.707.707-.707zM30 8H16V6h14v2zm-14 9h14v-2H16v2zm0 9h14v-2H16v2zm-9.293 2.207l6-6-1.414-1.414L6 26.086l-2.793-2.793-1.414 1.414 3.5 3.5.707.707.707-.707zm6-15l-6 6-.707.707-.707-.707-3.5-3.5 1.414-1.414L6 17.086l5.293-5.293 1.414 1.414z"/>
</svg>
